resources/godot_icons/light/Skeleton3D.svg

<svg height="16" viewBox="0 0 16 16" width="16" xmlns="http://www.w3.org/2000/svg"><path d="m6 2a4 4 0 0 0 -4 4 4 4 0 0 0 2 3.4531v3.5469a2 2 0 0 0 1 1.7324 2 2 0 0 0 1 .26562v.001953h4v-.001953a2 2 0 0 0 1-.26562 2 2 0 0 0 1-1.7324v-3.5469a4 4 0 0 0 2-3.4531 4 4 0 0 0 -4-4zm-1 3a1 1 0 0 1 1 1 1 1 0 0 1 -1 1 1 1 0 0 1 -1-1 1 1 0 0 1 1-1zm6 0a1 1 0 0 1 1 1 1 1 0 0 1 -1 1 1 1 0 0 1 -1-1 1 1 0 0 1 1-1zm-4 2h2v1h-2zm-2 2h1v1h1v-1h1 1v1h1v-1h1v.86719 3.1328h-1v-1h-1v1h-1-1v-1h-1v1h-1v-3.1309-.86914z" fill="#ff5f5f"/></svg>

<svg height="16" viewBox="0 0 16 16" width="16" xmlns="http://www.w3.org/2000/svg"><path d="M6 2a4 4 0 0 0-2 7.453V13a2 2 0 0 0 2 2h4a2 2 0 0 0 2-2V9.453A4 4 0 0 0 10 2zM5 5a1 1 0 0 1 0 2 1 1 0 0 1 0-2zm6 0a1 1 0 0 1 0 2 1 1 0 0 1 0-2zM7 7h2v1H7zM5 9h1v1h1V9h2v1h1V9h1v4h-1v-1H9v1H7v-1H6v1H5V9z" fill="#ff5f5f"/></svg>
